src/assets/images/landing/2-deco-3.svg

<svg width="383" height="692" viewBox="0 0 383 692" fill="none" xmlns="http://www.w3.org/2000/svg">
<path d="M77.5914 292.641C41.6772 394.305 23.0406 561.667 18.2115 632.64C117.737 673.016 208.92 680.008 242.071 678.457C260.121 618.526 300.324 471.637 316.733 363.532C333.143 255.427 309.563 147.541 295.722 107.111L292.241 74.2459L219.254 59.3077L205.591 88.6642C177.888 114.297 113.506 190.978 77.5914 292.641Z" stroke="#D9D9D9" stroke-width="5"/>
<path d="M230.117 21.2109L222.297 59.4189L290.876 73.4548L298.696 35.2468L270.774 29.5322L230.117 21.2109Z" stroke="#81EC40" stroke-width="5"/>
</svg>

<svg width="383" height="692" fill="none" xmlns="http://www.w3.org/2000/svg"><path d="M77.591 292.641c-35.914 101.664-54.55 269.026-59.38 339.999 99.526 40.376 190.709 47.368 223.86 45.817 18.05-59.931 58.253-206.82 74.662-314.925 16.41-108.105-7.17-215.991-21.011-256.421l-3.481-32.865-72.987-14.938-13.663 29.356c-27.703 25.633-92.085 102.314-128 203.977z" stroke="#D9D9D9" stroke-width="5"/><path d="M230.117 21.21l-7.82 38.209 68.579 14.036 7.82-38.208-27.922-5.715-40.657-8.321z" stroke="#81EC40" stroke-width="5"/></svg>
